src/images_karasa_jaga_svg/cmd/sc_basicshapes.round-rectangle.svg

<svg height="16" viewBox="0 0 16 16" width="16" xmlns="http://www.w3.org/2000/svg" xmlns:xlink="http://www.w3.org/1999/xlink"><linearGradient id="a" gradientUnits="userSpaceOnUse" x1="59.971828" x2="58.56282" y1="128.45074" y2="18.549261"><stop offset="0" stop-color="#fff"/><stop offset=".46428573" stop-color="#fff"/><stop offset=".78125" stop-color="#f1f1f1"/><stop offset=".90625" stop-color="#eaeaea"/><stop offset="1" stop-color="#dfdfdf"/></linearGradient><linearGradient id="b" gradientUnits="userSpaceOnUse" x1="8.003906" x2="119.99609" y1="63.999996" y2="63.999996"><stop offset="0" stop-color="#7c9fcf"/><stop offset=".5" stop-color="#7c9ece"/><stop offset="1" stop-color="#7b9dcf"/></linearGradient><g transform="scale(.125)"><path d="m32 24.003906c-13.155847 0-23.9960937 10.840247-23.9960938 23.996094v32c0 13.155847 10.8402468 23.99609 23.9960938 23.99609h64c13.15585 0 23.99609-10.840243 23.99609-23.99609v-32c0-13.155847-10.84024-23.996094-23.99609-23.996094z" fill="url(#b)"/><path d="m32 32c-8.864 0-16 7.136-16 16v32c0 8.864 7.136 16 16 16h64c8.864 0 16-7.136 16-16v-32c0-8.864-7.136-16-16-16z" fill="url(#a)" stroke-width="1.157932"/></g></svg>

<?xml version="1.0" encoding="UTF-8" standalone="no"?>
<svg
   xmlns:dc="http://purl.org/dc/elements/1.1/"
   xmlns:cc="http://creativecommons.org/ns#"
   xmlns:rdf="http://www.w3.org/1999/02/22-rdf-syntax-ns#"
   xmlns:svg="http://www.w3.org/2000/svg"
   xmlns="http://www.w3.org/2000/svg"
   xmlns:xlink="http://www.w3.org/1999/xlink"
   xmlns:sodipodi="http://sodipodi.sourceforge.net/DTD/sodipodi-0.dtd"
   xmlns:inkscape="http://www.inkscape.org/namespaces/inkscape"
   height="128"
   viewBox="0 0 128 128"
   width="128"
   version="1.1"
   id="svg31"
   sodipodi:docname="sc_basicshapes.round-rectangle.svg"
   inkscape:version="0.92.3 (unknown)"
   inkscape:export-filename="/home/rizmut/Dokumen/Rizmut/Github/libreoffice-style-karasa-jaga/build/images_karasa_jaga/cmd/sc_basicshapes.round-rectangle.png"
   inkscape:export-xdpi="12"
   inkscape:export-ydpi="12">
  <metadata
     id="metadata37">
    <rdf:RDF>
      <cc:Work
         rdf:about="">
        <dc:format>image/svg+xml</dc:format>
        <dc:type
           rdf:resource="http://purl.org/dc/dcmitype/StillImage" />
        <dc:title></dc:title>
      </cc:Work>
    </rdf:RDF>
  </metadata>
  <defs
     id="defs35">
    <linearGradient
       id="linearGradient3369">
      <stop
         id="stop3372"
         offset="0"
         style="stop-color:#ffffff;stop-opacity:1;" />
      <stop
         style="stop-color:#ffffff;stop-opacity:1;"
         offset="0.46428573"
         id="stop3374" />
      <stop
         style="stop-color:#f1f1f1;stop-opacity:1;"
         offset="0.78125"
         id="stop3376" />
      <stop
         id="stop3378"
         offset="0.90625"
         style="stop-color:#eaeaea;stop-opacity:1;" />
      <stop
         id="stop3384"
         offset="1"
         style="stop-color:#dfdfdf;stop-opacity:1;" />
    </linearGradient>
    <linearGradient
       id="linearGradient7422">
      <stop
         style="stop-color:#7c9fcf;stop-opacity:1"
         offset="0"
         id="stop7424" />
      <stop
         id="stop5348"
         offset="0.5"
         style="stop-color:#7c9ece;stop-opacity:1" />
      <stop
         id="stop7426"
         offset="1"
         style="stop-color:#7b9dcf;stop-opacity:1" />
    </linearGradient>
    <linearGradient
       inkscape:collect="always"
       xlink:href="#linearGradient3369"
       id="linearGradient891"
       x1="60"
       y1="128"
       x2="58.600845"
       y2="18.867123"
       gradientUnits="userSpaceOnUse"
       gradientTransform="matrix(1.0070428,0,0,1.0070428,-0.45073921,-0.45073921)" />
    <linearGradient
       inkscape:collect="always"
       xlink:href="#linearGradient7422"
       id="linearGradient877"
       x1="8.0039062"
       y1="63.999996"
       x2="119.99609"
       y2="63.999996"
       gradientUnits="userSpaceOnUse" />
  </defs>
  <sodipodi:namedview
     pagecolor="#ffffff"
     bordercolor="#666666"
     borderopacity="1"
     objecttolerance="10"
     gridtolerance="10"
     guidetolerance="10"
     inkscape:pageopacity="0"
     inkscape:pageshadow="2"
     inkscape:window-width="1366"
     inkscape:window-height="706"
     id="namedview33"
     showgrid="true"
     inkscape:zoom="2"
     inkscape:cx="63.015371"
     inkscape:cy="56.809031"
     inkscape:window-x="0"
     inkscape:window-y="0"
     inkscape:window-maximized="1"
     inkscape:current-layer="svg31"
     inkscape:snap-global="false"
     showguides="false">
    <inkscape:grid
       type="xygrid"
       id="grid844"
       spacingx="8"
       spacingy="8"
       empspacing="2" />
  </sodipodi:namedview>
  <linearGradient
     id="a">
    <stop
       offset="0"
       stop-color="#f9f9fa"
       id="stop2" />
    <stop
       offset="1"
       stop-color="#f9f9fa"
       stop-opacity="0"
       id="stop4" />
  </linearGradient>
  <linearGradient
     id="b"
     gradientUnits="userSpaceOnUse"
     x1="42.276669"
     x2="-13.469376"
     xlink:href="#a"
     y1="50.867565"
     y2="104.97279" />
  <linearGradient
     id="c"
     gradientUnits="userSpaceOnUse"
     x1="-1.817377"
     x2="2.172436"
     xlink:href="#a"
     y1="55.003803"
     y2="116.784" />
  <path
     sodipodi:type="inkscape:offset"
     inkscape:radius="7.9966927"
     inkscape:original="M 32 32 C 23.136 32 16 39.136 16 48 L 16 80 C 16 88.864 23.136 96 32 96 L 96 96 C 104.864 96 112 88.864 112 80 L 112 48 C 112 39.136 104.864 32 96 32 L 32 32 z "
     style="opacity:1;fill:url(#linearGradient877);fill-opacity:1.0;stroke:none;stroke-width:3.77952766;stroke-linecap:round;stroke-linejoin:round;stroke-miterlimit:4;stroke-dasharray:none;stroke-dashoffset:0;stroke-opacity:1"
     id="rect867"
     d="M 32,24.003906 C 18.844153,24.003906 8.0039063,34.844153 8.0039062,48 v 32 c 0,13.155847 10.8402468,23.99609 23.9960938,23.99609 h 64 c 13.15585,0 23.99609,-10.840243 23.99609,-23.99609 V 48 C 119.99609,34.844153 109.15585,24.003906 96,24.003906 Z" />
  <path
     style="fill:url(#linearGradient891);fill-opacity:1;stroke-width:1.15793192"
     d="M 32 32 C 23.136 32 16 39.136 16 48 L 16 80 C 16 88.864 23.136 96 32 96 L 96 96 C 104.864 96 112 88.864 112 80 L 112 48 C 112 39.136 104.864 32 96 32 L 32 32 z "
     id="path23" />
</svg>
